X: 1
T: The Hangover
R: jig
M: 6/8
L: 1/8
K: Dmaj
|:Ecc cdc|BGG GzG|AdA def|ecc czB|
=ceg gfe|ded BAG|AB=c BAB|1 GEE E2z:|2 GEE E2B:|
|:=ceg gfe|dBB BzB|dBB fef|gee ezd|
=ceg gfe|ded BAG|AB=c BAB|1 GEE EzB:|2 GEE E3||


